svg/system/t_shirt_fill.svg

<?xml version="1.0" encoding="UTF-8"?>
<svg width="24px" height="24px" viewBox="0 0 24 24" version="1.1" xmlns="http://www.w3.org/2000/svg" xmlns:xlink="http://www.w3.org/1999/xlink">
    <title>t_shirt_fill</title>
    <g id="页面-1" stroke="none" stroke-width="1" fill="none" fill-rule="evenodd">
        <g id="System" transform="translate(-1392.000000, -48.000000)">
            <g id="t_shirt_fill" transform="translate(1392.000000, 48.000000)">
                 <path d="M24,0 L24,24 L0,24 L0,0 L24,0 Z M12.5934901,23.257841 L12.5819402,23.2595131 L12.5108777,23.2950439 L12.4918791,23.2987469 L12.4918791,23.2987469 L12.4767152,23.2950439 L12.4056548,23.2595131 C12.3958229,23.2563662 12.3870493,23.2590235 12.3821421,23.2649074 L12.3780323,23.275831 L12.360941,23.7031097 L12.3658947,23.7234994 L12.3769048,23.7357139 L12.4804777,23.8096931 L12.4953491,23.8136134 L12.4953491,23.8136134 L12.5071152,23.8096931 L12.6106902,23.7357139 L12.6232938,23.7196733 L12.6232938,23.7196733 L12.6266527,23.7031097 L12.609561,23.275831 C12.6075724,23.2657013 12.6010112,23.2592993 12.5934901,23.257841 L12.5934901,23.257841 Z M12.8583906,23.1452862 L12.8445485,23.1473072 L12.6598443,23.2396597 L12.6498822,23.2499052 L12.6498822,23.2499052 L12.6471943,23.2611114 L12.6650943,23.6906389 L12.6699349,23.7034178 L12.6699349,23.7034178 L12.678386,23.7104931 L12.8793402,23.8032389 C12.8914285,23.8068999 12.9022333,23.8029875 12.9078286,23.7952264 L12.9118235,23.7811639 L12.8776777,23.1665331 C12.8752882,23.1545897 12.8674102,23.1470016 12.8583906,23.1452862 L12.8583906,23.1452862 Z M12.1430473,23.1473072 C12.1332178,23.1423925 12.1221763,23.1452606 12.1156365,23.1525954 L12.1099173,23.1665331 L12.0757714,23.7811639 C12.0751323,23.7926639 12.0828099,23.8018602 12.0926481,23.8045676 L12.108256,23.8032389 L12.3092106,23.7104931 L12.3186497,23.7024347 L12.3186497,23.7024347 L12.3225043,23.6906389 L12.340401,23.2611114 L12.337245,23.2485176 L12.337245,23.2485176 L12.3277531,23.2396597 L12.1430473,23.1473072 Z" id="MingCute" fill-rule="nonzero"></path>
                <path d="M5.70708,3.87879 C6.26969,3.31618 7.03275,3.00011 7.8284,3.00011 C8.6172,3.00011 9.77575,2.78054 10.1297,3.71099 C10.417,4.46619 11.1474,5.00011 12,5.00011 C12.8526,5.00011 13.5829,4.46619 13.8702,3.71099 C14.2242,2.78054 15.3827,3.00011 16.1715,3.00011 C16.9672,3.00011 17.7303,3.31618 18.2929,3.87879 L22,7.5859 C22.781,8.36695 22.781,9.63328 22,10.4143 L20.5224,11.8919 C20.0021,12.4122 19.2762,12.581 18.6221,12.418 L18.8937,17.8503 C18.9794,19.5638 17.6132,21.0001 15.8975,21.0001 L8.10247,21.0001 C6.38678,21.0001 5.02053,19.5639 5.10621,17.8503 L5.37783,12.418 C4.72371,12.581 3.99782,12.4122 3.47756,11.8919 L1.99997,10.4143 C1.21892,9.63328 1.21892,8.36695 1.99997,7.5859 L5.70708,3.87879 Z" id="路径" fill="#09244B"></path>
            </g>
        </g>
    </g>
</svg>

<svg xmlns="http://www.w3.org/2000/svg" width="24" height="24"><g fill="none" fill-rule="evenodd"><path d="M24 0v24H0V0h24ZM12.593 23.258l-.011.002-.071.035-.02.004-.014-.004-.071-.035c-.01-.004-.019-.001-.024.005l-.004.01-.017.428.005.02.01.013.104.074.015.004.012-.004.104-.074.012-.016.004-.017-.017-.427c-.002-.01-.009-.017-.017-.018Zm.265-.113-.013.002-.185.093-.01.01-.003.011.018.43.005.012.008.007.201.093c.012.004.023 0 .029-.008l.004-.014-.034-.614c-.003-.012-.01-.02-.02-.022Zm-.715.002a.023.023 0 0 0-.027.006l-.006.014-.034.614c0 .012.007.02.017.024l.015-.002.201-.093.01-.008.004-.011.017-.43-.003-.012-.01-.01-.184-.092Z"/><path fill="#09244B" d="M5.707 3.879A3 3 0 0 1 7.828 3c.79 0 1.948-.22 2.302.711a2.001 2.001 0 0 0 3.74 0c.354-.93 1.513-.71 2.302-.71a3 3 0 0 1 2.12.878L22 7.586a2 2 0 0 1 0 2.828l-1.478 1.478c-.52.52-1.246.689-1.9.526l.272 5.432A3 3 0 0 1 15.898 21H8.102a3 3 0 0 1-2.996-3.15l.272-5.432a1.996 1.996 0 0 1-1.9-.526L2 10.414a2 2 0 0 1 0-2.828l3.707-3.707Z"/></g></svg>
